svg/u1f6df.svg

<svg viewBox="0 0 128 128" xmlns="http://www.w3.org/2000/svg" xmlns:xlink="http://www.w3.org/1999/xlink">
  <g>
    <path d="M64.03,9.51c-33.19,0-58,27.24-58,58.71s24.99,55.26,58,55.26c34.01,0,58.09-23.64,58.09-55.11 S104.26,9.51,64.03,9.51z M63.87,90.86c-14.79,0-26.77-11.99-26.77-26.77s11.99-26.77,26.77-26.77s26.77,11.99,26.77,26.77 S78.65,90.86,63.87,90.86z" fill="#DD2C00"/>
    <path d="M64.08,4.92C30.85,4.92,6,30.72,7.04,61.97c1.05,31.49,21.79,57.05,57.05,57.05 c36.52,0,57.05-25.54,57.05-57.05S99.84,4.92,64.08,4.92z M63.87,92.43c-16.74,0-30.31-13.57-30.31-30.31s13.57-30.31,30.31-30.31 s30.31,13.57,30.31,30.31S80.61,92.43,63.87,92.43z" fill="#FF3D00"/>
    <g opacity="0.88">
      <path d="M19.13,39.97c-1.34-0.5-1.26-2.81-0.67-4.34c4.45-11.55,12.19-18.15,24.61-22.56 c2.54-0.9,3.84-0.45,4.31,1.18c0.45,1.58-0.68,2.65-2.2,3.3c-9.46,4.06-17.58,11.64-22.3,20.79 C22.36,39.35,20.81,40.59,19.13,39.97z" fill="#FF9E80"/>
    </g>
    <path d="M74.35,6.1c-0.2-0.69-0.47-1.12-1.16-1.3C71.85,4.46,69.1,4,64.07,4c-5.03,0-7.78,0.46-9.12,0.8 c-0.69,0.18-0.88,0.49-1.08,1.18c-0.54,1.84-1.55,4.91-1.34,12.93c0.2,7.74,2.71,15.7,2.71,15.7c0.17,0.36,4.34,0.51,8.83,0.51 c4.49,0.01,8.66-0.15,8.83-0.51c0,0,2.21-7.78,2.21-15.63C75.11,12.06,74.89,7.94,74.35,6.1z" fill="#E0E0E0"/>
    <path d="M73.17,91.19c-0.33-0.69-0.86-1.32-1.73-1.59c-0.39-0.12-0.8-0.11-1.19,0.01 c-1.02,0.34-2.47,0.77-6.18,0.77c-3.71,0-5.15-0.43-6.18-0.77c-0.39-0.13-0.8-0.13-1.19-0.01c-0.87,0.26-1.4,0.9-1.73,1.59 c0,0-2.02,2.93-2.02,14.49c0,5.8,0.44,10.33,0.75,12.74c0.16,1.25,0.73,2.25,0.73,2.25s4.9,0.76,9.65,0.7 c4.75,0.06,9.37-0.87,9.37-0.87s0.7-0.79,0.87-1.96c0.35-2.38,0.88-6.96,0.88-12.86C75.19,94.11,73.17,91.19,73.17,91.19z" fill="#E0E0E0"/>
    <path d="M74.15,119.63c0.15-0.69-0.34-0.7-1.06-0.6c-1.55,0.21-4.62,0.79-9.28,0.79 c-4.53,0-7.24-0.56-8.76-0.77c-0.75-0.1-1.25,0.12-1.04,0.83c0.35,1.19,1.02,3.17,2.04,3.51c0,0,3.44,0.62,7.95,0.62 c6,0,8.33-0.63,8.33-0.63C73.12,123.12,73.87,120.97,74.15,119.63z" fill="#9E9E9E"/>
    <path d="M55.08,34.79c0.41,1.44,1.8,3.29,1.8,3.29c0.38,0.48,0.77,0.51,1.56,0.35 c1.26-0.25,3.13-0.74,5.65-0.74c2.53,0,4.32,0.47,5.62,0.73c0.8,0.16,1.1,0.03,1.44-0.3c0,0,1.52-2.32,1.88-3.28 c0.18-0.49,0.1-0.89-1.15-1.36c-1.44-0.54-3.69-1.2-7.85-1.2c-4.12,0-6.29,0.62-7.71,1.09C55.29,33.7,54.89,34.12,55.08,34.79z" fill="#9E9E9E"/>
    <path d="M8.38,53.11c-0.7,0.16-1.24,0.63-1.43,1.25c-0.37,1.19-0.66,2.52-0.8,7.02 c-0.13,4.51,0.28,8.42,0.58,9.63c0.08,0.31,0.1,1.04,0.61,0.86c0.83-0.29,2.42-1.35,13.16-1.89c5.97-0.3,12.63,0.35,14.55,0.47 c1.16,0.07,2.32-0.3,2.32-0.3c0.36-0.14-0.9-3.85-0.79-7.87c0.13-4.02,0.81-7.34,0.81-7.34s-0.63-0.77-2.2-1.35 c-1.24-0.46-6.21-1.99-12.97-2.15C11.73,51.2,8.38,53.11,8.38,53.11z" fill="#E0E0E0"/>
    <path d="M35.18,54.5c0.16-0.47,0.81-0.63,1.23-0.32c0,0,1.35,0.88,1.82,1.51c0.47,0.64,0.58,0.76,0.45,1.21 c-0.25,0.88-1,3.33-1,6.36c0,2.93,0.59,5.11,0.67,6.29c0.03,0.44-0.23,0.59-1.34,0.75c-0.39,0.06-1.57,0.39-1.92-0.77 c-0.37-1.26-1-3.9-1.01-7.31C34.07,58.49,34.74,55.78,35.18,54.5z" fill="#9E9E9E"/>
    <path d="M119.62,52.69c0.7,0.17,1.24,0.66,1.43,1.31c0.37,1.25,0.66,2.64,0.8,7.36 c0.13,4.72-0.28,8.82-0.58,10.09c-0.08,0.33-0.28,0.73-0.82,0.71s-3.47-1.8-14.21-2.23c-10.01-0.41-14.87,1.18-14.87,1.18 c-0.36-0.15,0.16-4.59,0.05-8.81c-0.13-4.21-0.81-7.69-0.81-7.69s0.63-0.8,2.2-1.41c1.24-0.48,6.21-2.09,12.97-2.25 C116.27,50.69,119.62,52.69,119.62,52.69z" fill="#E0E0E0"/>
    <path d="M92.82,54.15c-0.16-0.49-0.81-0.66-1.23-0.33c0,0-1.35,0.92-1.82,1.59 c-0.47,0.67-0.58,0.8-0.45,1.27c0.25,0.92,1,3.49,1,6.67c0,3.07-0.79,6.43-0.86,7.67c-0.03,0.46,0.8,0.11,1.92,0.1 c0.55,0,1.19,0.01,1.53-1.2c0.37-1.32,1-4.09,1.01-7.66C93.94,58.33,93.27,55.49,92.82,54.15z" fill="#BDBDBD"/>
    <path d="M71.5,89.62c-0.36-0.12-0.96-0.1-1.32,0.02c-1.02,0.34-2.48,0.75-6.11,0.75 c-3.61,0-5.08-0.41-6.1-0.75c-0.38-0.13-0.79-0.17-1.18-0.07c-0.65,0.18-1.31,0.59-1.79,1.39c-0.31,0.53-0.02,1.22,0.57,1.38 c1.77,0.48,4.51,0.94,8.45,0.87c3.74-0.07,6.56-0.49,8.5-0.91c0.61-0.13,0.93-0.85,0.6-1.39C72.7,90.22,72.09,89.81,71.5,89.62z" fill="#BDBDBD"/>
    <path d="M6.12,72.17c-1.39-5.94-1.01-11.82,0.24-16.98c0.26-1.07,0.83-1.76,1.29-1.76 c0,0-0.02,0.25-0.14,0.75c-1.25,5.33-0.86,11.5,0.12,16.94c0.09,0.51-0.12,0.68-0.45,0.86c-0.17,0.1-0.35,0.21-0.49,0.3 C6.2,72.62,6.12,72.17,6.12,72.17z" fill="#BDBDBD"/>
    <path d="M121.88,72.66c1.39-6.23,1.01-12.38-0.24-17.79c-0.26-1.12-0.83-1.84-1.29-1.84 c0,0,0.02,0.26,0.14,0.78c1.25,5.59,0.86,12.05-0.12,17.75c-0.09,0.54,0.12,0.71,0.45,0.9c0.17,0.1,0.35,0.22,0.49,0.31 C121.8,73.13,121.88,72.66,121.88,72.66z" fill="#9E9E9E"/>
  </g>
</svg>

<svg viewBox="0 0 128 128" xmlns="http://www.w3.org/2000/svg">
  <defs/>
  <path d="M64.03,9.51 C30.84,9.51 6.03,36.75 6.03,68.22 C6.03,99.69 31.02,123.48 64.03,123.48 C98.04,123.48 122.12,99.84 122.12,68.37 C122.12,36.9 104.26,9.51 64.03,9.51 Z M63.87,90.86 C49.08,90.86 37.1,78.87 37.1,64.09 C37.1,49.31 49.09,37.32 63.87,37.32 C78.65,37.32 90.64,49.31 90.64,64.09 C90.64,78.87 78.65,90.86 63.87,90.86 Z" fill="#DD2C00"/>
  <path d="M64.08,4.92 C30.85,4.92 6,30.72 7.04,61.97 C8.09,93.46 28.83,119.02 64.09,119.02 C100.61,119.02 121.14,93.48 121.14,61.97 C121.14,30.46 99.84,4.92 64.08,4.92 Z M63.87,92.43 C47.13,92.43 33.56,78.86 33.56,62.12 C33.56,45.38 47.13,31.81 63.87,31.81 C80.61,31.81 94.18,45.38 94.18,62.12 C94.18,78.86 80.61,92.43 63.87,92.43 Z" fill="#FF3D00"/>
  <path d="M19.13,39.97 C17.79,39.47 17.87,37.16 18.46,35.63 C22.91,24.08 30.65,17.48 43.07,13.07 C45.61,12.17 46.91,12.62 47.38,14.25 C47.83,15.83 46.7,16.9 45.18,17.55 C35.72,21.61 27.6,29.19 22.88,38.34 C22.36,39.35 20.81,40.59 19.13,39.97 Z" fill="#FF9E80" opacity="0.88"/>
  <path d="M74.35,6.1 C74.15,5.41 73.88,4.98 73.19,4.8 C71.85,4.46 69.1,4 64.07,4 C59.04,4 56.29,4.46 54.95,4.8 C54.26,4.98 54.07,5.29 53.87,5.98 C53.33,7.82 52.32,10.89 52.53,18.91 C52.73,26.65 55.24,34.61 55.24,34.61 C55.41,34.97 59.58,35.12 64.07,35.12 C68.56,35.13 72.73,34.97 72.9,34.61 C72.9,34.61 75.11,26.83 75.11,18.98 C75.11,12.06 74.89,7.94 74.35,6.1 Z" fill="#E0E0E0"/>
  <path d="M73.17,91.19 C72.84,90.5 72.31,89.87 71.44,89.6 C71.05,89.48 70.64,89.49 70.25,89.61 C69.23,89.95 67.78,90.38 64.07,90.38 C60.36,90.38 58.92,89.95 57.89,89.61 C57.5,89.48 57.09,89.48 56.7,89.6 C55.83,89.86 55.3,90.5 54.97,91.19 C54.97,91.19 52.95,94.12 52.95,105.68 C52.95,111.48 53.39,116.01 53.7,118.42 C53.86,119.67 54.43,120.67 54.43,120.67 C54.43,120.67 59.33,121.43 64.08,121.37 C68.83,121.43 73.45,120.5 73.45,120.5 C73.45,120.5 74.15,119.71 74.32,118.54 C74.67,116.16 75.2,111.58 75.2,105.68 C75.19,94.11 73.17,91.19 73.17,91.19 Z" fill="#E0E0E0"/>
  <path d="M74.15,119.63 C74.3,118.94 73.81,118.93 73.09,119.03 C71.54,119.24 68.47,119.82 63.81,119.82 C59.28,119.82 56.57,119.26 55.05,119.05 C54.3,118.95 53.8,119.17 54.01,119.88 C54.36,121.07 55.03,123.05 56.05,123.39 C56.05,123.39 59.49,124.01 64,124.01 C70,124.01 72.33,123.38 72.33,123.38 C73.12,123.12 73.87,120.97 74.15,119.63 Z" fill="#9E9E9E"/>
  <path d="M55.08,34.79 C55.49,36.23 56.88,38.08 56.88,38.08 C57.26,38.56 57.65,38.59 58.44,38.43 C59.7,38.18 61.57,37.69 64.09,37.69 C66.62,37.69 68.41,38.16 69.71,38.42 C70.51,38.58 70.81,38.45 71.15,38.12 C71.15,38.12 72.67,35.8 73.03,34.84 C73.21,34.35 73.13,33.95 71.88,33.48 C70.44,32.94 68.19,32.28 64.03,32.28 C59.91,32.28 57.74,32.9 56.32,33.37 C55.29,33.7 54.89,34.12 55.08,34.79 Z" fill="#9E9E9E"/>
  <path d="M8.38,53.11 C7.68,53.27 7.14,53.74 6.95,54.36 C6.58,55.55 6.29,56.88 6.15,61.38 C6.02,65.89 6.43,69.8 6.73,71.01 C6.81,71.32 6.83,72.05 7.34,71.87 C8.17,71.58 9.76,70.52 20.5,69.98 C26.47,69.68 33.13,70.33 35.05,70.45 C36.21,70.52 37.37,70.15 37.37,70.15 C37.73,70.01 36.47,66.3 36.58,62.28 C36.71,58.26 37.39,54.94 37.39,54.94 C37.39,54.94 36.76,54.17 35.19,53.59 C33.95,53.13 28.98,51.6 22.22,51.44 C11.73,51.2 8.38,53.11 8.38,53.11 Z" fill="#E0E0E0"/>
  <path d="M35.18,54.5 C35.34,54.03 35.99,53.87 36.41,54.18 C36.41,54.18 37.76,55.06 38.23,55.69 C38.7,56.33 38.81,56.45 38.68,56.9 C38.43,57.78 37.68,60.23 37.68,63.26 C37.68,66.19 38.27,68.37 38.35,69.55 C38.38,69.99 38.12,70.14 37.01,70.3 C36.62,70.36 35.44,70.69 35.09,69.53 C34.72,68.27 34.09,65.63 34.08,62.22 C34.07,58.49 34.74,55.78 35.18,54.5 Z" fill="#9E9E9E"/>
  <path d="M119.62,52.69 C120.32,52.86 120.86,53.35 121.05,54 C121.42,55.25 121.71,56.64 121.85,61.36 C121.98,66.08 121.57,70.18 121.27,71.45 C121.19,71.78 120.99,72.18 120.45,72.16 C119.91,72.14 116.98,70.36 106.24,69.93 C96.23,69.52 91.37,71.11 91.37,71.11 C91.01,70.96 91.53,66.52 91.42,62.3 C91.29,58.09 90.61,54.61 90.61,54.61 C90.61,54.61 91.24,53.81 92.81,53.2 C94.05,52.72 99.02,51.11 105.78,50.95 C116.27,50.69 119.62,52.69 119.62,52.69 Z" fill="#E0E0E0"/>
  <path d="M92.82,54.15 C92.66,53.66 92.01,53.49 91.59,53.82 C91.59,53.82 90.24,54.74 89.77,55.41 C89.3,56.08 89.19,56.21 89.32,56.68 C89.57,57.6 90.32,60.17 90.32,63.35 C90.32,66.42 89.53,69.78 89.46,71.02 C89.43,71.48 90.26,71.13 91.38,71.12 C91.93,71.12 92.57,71.13 92.91,69.92 C93.28,68.6 93.91,65.83 93.92,62.26 C93.94,58.33 93.27,55.49 92.82,54.15 Z" fill="#BDBDBD"/>
  <path d="M71.5,89.62 C71.14,89.5 70.54,89.52 70.18,89.64 C69.16,89.98 67.7,90.39 64.07,90.39 C60.46,90.39 58.99,89.98 57.97,89.64 C57.59,89.51 57.18,89.47 56.79,89.57 C56.14,89.75 55.48,90.16 55,90.96 C54.69,91.49 54.98,92.18 55.57,92.34 C57.34,92.82 60.08,93.28 64.02,93.21 C67.76,93.14 70.58,92.72 72.52,92.3 C73.13,92.17 73.45,91.45 73.12,90.91 C72.7,90.22 72.09,89.81 71.5,89.62 Z" fill="#BDBDBD"/>
  <path d="M6.12,72.17 C4.73,66.23 5.11,60.35 6.36,55.19 C6.62,54.12 7.19,53.43 7.65,53.43 C7.65,53.43 7.63,53.68 7.51,54.18 C6.26,59.51 6.65,65.68 7.63,71.12 C7.72,71.63 7.51,71.8 7.18,71.98 C7.01,72.08 6.83,72.19 6.69,72.28 C6.2,72.62 6.12,72.17 6.12,72.17 Z" fill="#BDBDBD"/>
  <path d="M121.88,72.66 C123.27,66.43 122.89,60.28 121.64,54.87 C121.38,53.75 120.81,53.03 120.35,53.03 C120.35,53.03 120.37,53.29 120.49,53.81 C121.74,59.4 121.35,65.86 120.37,71.56 C120.28,72.1 120.49,72.27 120.82,72.46 C120.99,72.56 121.17,72.68 121.31,72.77 C121.8,73.13 121.88,72.66 121.88,72.66 Z" fill="#9E9E9E"/>
</svg>
